X: 169
T:Fainne Oir Ort
T:Gold Ring, The
N: page 55
N: hexatonic
M:6/8
Z:There are two unrelated tunes called the Gold Ring, so we gave the Irish
Z:name here.  Really for a fiddle, but it can be faked quite well on other
Z:instruments. (Not really that widely known--introduce it to _your_
Z:session.)  From Ceol Rince na hEireann.
R:jig
K:D
B,|"D"DA,A, DFA|dfd "A"edA|"G"BdB "D"AFD|"A"EDE "D"FDB,|\
"A7"A,G,A, "D"DFA|dfd "A7"edA|"G"BdB "A"AFE|"D"FDD D2:|
B|"D"AFA dfa|"G"bgb "D"afd|"G"gag "D"faf|"A"ede "D"fdB|\
AFA dfa|"G"bgb "D"afd|"G"BdB "D"AFA|Bdd d2:|
e|"D"dFF "A"AFE|"D"DFE DFA|dfd "A"ede|fdB "G"BAB|\
"D"dFF "A"AFE|"D"DFE DFA|dfd "A"ede|"D"fdd d2:|
B|"A"AFA "D"dfd|"G"BAB "D"dAF|DEF "A"EDE|FDB, "G"B,BA|\
"D"AFA dfd|"G"BAB dAF|"D"DEF "A"EDE|FDD D2:|
